apps/dialog/public/ui/token-icons/op.svg

<svg width="24" height="24" viewBox="0 0 24 24" fill="none" xmlns="http://www.w3.org/2000/svg">
<g clip-path="url(#clip0_4209_8718)">
<path d="M12 24C18.6274 24 24 18.6274 24 12C24 5.37258 18.6274 0 12 0C5.37258 0 0 5.37258 0 12C0 18.6274 5.37258 24 12 24Z" fill="#FF0420"/>
<path d="M8.50074 15.1872C7.78554 15.1872 7.19994 15.0192 6.74394 14.6832C6.29274 14.3424 6.06714 13.8528 6.06714 13.224C6.06714 13.0896 6.08154 12.9312 6.11034 12.7392C6.18714 12.3072 6.29754 11.7888 6.44154 11.1792C6.84954 9.52799 7.90554 8.70239 9.60474 8.70239C10.0655 8.70239 10.4831 8.77919 10.8479 8.93759C11.2127 9.08639 11.5007 9.31679 11.7119 9.62399C11.9231 9.92639 12.0287 10.2864 12.0287 10.704C12.0287 10.8288 12.0143 10.9872 11.9855 11.1792C11.8943 11.712 11.7887 12.2352 11.6591 12.7392C11.4479 13.56 11.0879 14.1792 10.5695 14.5872C10.0559 14.9904 9.36474 15.1872 8.50074 15.1872ZM8.63034 13.8912C8.96634 13.8912 9.24954 13.7904 9.48474 13.5936C9.72474 13.3968 9.89754 13.0944 9.99834 12.6816C10.1375 12.1152 10.2431 11.6256 10.3151 11.2032C10.3391 11.0784 10.3535 10.9488 10.3535 10.8144C10.3535 10.2672 10.0703 9.99359 9.49914 9.99359C9.16314 9.99359 8.87514 10.0944 8.63514 10.2912C8.39994 10.488 8.23194 10.7904 8.13114 11.2032C8.02074 11.6064 7.91514 12.096 7.80474 12.6816C7.78074 12.8016 7.76634 12.9264 7.76634 13.0608C7.76154 13.6176 8.05434 13.8912 8.63034 13.8912Z" fill="white"/>
<path d="M12.4465 15.1008C12.3793 15.1008 12.3313 15.0816 12.2929 15.0384C12.2641 14.9904 12.2545 14.9376 12.2641 14.8752L13.5073 9.01918C13.5169 8.95198 13.5505 8.89918 13.6081 8.85598C13.6609 8.81278 13.7185 8.79358 13.7809 8.79358H16.1761C16.8433 8.79358 17.3761 8.93278 17.7793 9.20638C18.1873 9.48478 18.3937 9.88318 18.3937 10.4064C18.3937 10.5552 18.3745 10.7136 18.3409 10.8768C18.1921 11.568 17.8897 12.0768 17.4289 12.408C16.9777 12.7392 16.3585 12.9024 15.5713 12.9024H14.3569L13.9441 14.8752C13.9297 14.9424 13.9009 14.9952 13.8433 15.0384C13.7905 15.0816 13.7329 15.1008 13.6705 15.1008H12.4465ZM15.6337 11.6592C15.8881 11.6592 16.1041 11.592 16.2913 11.4528C16.4833 11.3136 16.6081 11.1168 16.6705 10.8576C16.6897 10.7568 16.6993 10.6656 16.6993 10.5888C16.6993 10.416 16.6465 10.2816 16.5457 10.1904C16.4449 10.0944 16.2673 10.0464 16.0225 10.0464H14.9425L14.6017 11.6592H15.6337Z" fill="white"/>
</g>
<defs>
<clipPath id="clip0_4209_8718">
<rect width="24" height="24" fill="white"/>
</clipPath>
</defs>
</svg>

<svg xmlns="http://www.w3.org/2000/svg" width="24" height="24" fill="none" viewBox="0 0 24 24"><g clip-path="url(#a)"><path fill="#ff0420" d="M12 24c6.627 0 12-5.373 12-12S18.627 0 12 0 0 5.373 0 12s5.373 12 12 12"/><path fill="#fff" d="M8.5 15.187q-1.072 0-1.756-.504c-.451-.34-.677-.83-.677-1.459 0-.134.015-.293.043-.485q.116-.646.332-1.56.613-2.477 3.163-2.477c.46 0 .878.077 1.243.236q.547.224.864.686.317.453.317 1.08 0 .187-.043.475a20 20 0 0 1-.327 1.56c-.211.821-.571 1.44-1.09 1.848-.513.403-1.204.6-2.068.6m.13-1.296q.503 0 .855-.297.362-.295.513-.912c.14-.567.245-1.056.317-1.479q.037-.187.039-.389 0-.82-.855-.82-.504 0-.864.297-.353.295-.504.912c-.11.403-.216.893-.326 1.479q-.038.178-.039.379c-.004.557.288.83.864.83M12.447 15.1c-.068 0-.116-.018-.154-.062q-.043-.07-.029-.163l1.243-5.856a.24.24 0 0 1 .101-.163.26.26 0 0 1 .173-.062h2.395q1 .001 1.603.412.613.417.615 1.2-.002.226-.053.47c-.149.692-.451 1.2-.912 1.532q-.676.495-1.858.494h-1.214l-.413 1.973a.26.26 0 0 1-.1.163.26.26 0 0 1-.173.063zm3.187-3.44c.254 0 .47-.068.657-.207a1 1 0 0 0 .38-.595q.028-.152.028-.27-.002-.259-.153-.398c-.101-.096-.279-.144-.523-.144h-1.08l-.341 1.613z"/></g><defs><clipPath id="a"><path fill="#fff" d="M0 0h24v24H0z"/></clipPath></defs></svg>
